X:1
T:Gloria Patri
T:Giovanni Pierluigi da Palestrina (1515-1594)
T:Gloria Patri
T:Public Domain
T:Public Domain
C:Giovanni Pierluigi da Palestrina (1515-1594)
Z:Public Domain
%%score ( 1 2 ) ( 3 4 )
L:1/8
M:3/4
K:F
V:1 treble 
V:2 treble 
V:3 bass 
V:4 bass 
V:1
!f! [Fc]3 [Fc] [Fc]2 | [Fd]4 [Fc]2 | [Fc]2 [DB]2 [FA]2 | [Ec]6 |!pp! [Fc]3 [Fc] [Fc]2 | %5
w: 1.~Glo- ri- a|pa- tri|et fil- i-|o,|glo- ri- a|
w: 2.~Fa- ther of|Light, we|sing in Thy|praise,|Fa- ther of|
 [Fd]4 [Fc]2 | [Fc]2 [DB]2 [FA]2 | [Ec]6 | [CA]3 [CA] [CA]2 | [DA]4 [DA]2 | [CA]2 [DG]2 [DF]2 | %11
w: pa- tri|et fil- i-|o,|Glo- ri- a|pa- tri|et fil- i-|
w: Light, we|sing in Thy|praise.|Joy- ful- ly|now, our|voic- es we|
 [EG]6 |!pp! [CA]3 [CA] [CA]2 | [DA]4 [CA]2 | [CA]2 [DG]2 [DF]2 | [EG]6 |!mf! G4 A2 | G2 E2 A2 | %18
w: o,|glo- ri- a|pa- tri|et fil- i-|o,|Et spi-|ri- tu- i|
w: raise,|Joy- ful- ly|now, our|voic- es we|raise.|May Thy|peace come down|
 (A2- AG/F/) G2 | [Ec]4 [Ec]2 | (F2 C2) [DA]2 | [Cc]2 E2 D2 | [_DA]6 | [DA]6 |!pp! [CA]4 [CG]2 | %25
w: sanc- * * * to,|spi- ri-|tu- * i|to, * *|Et|spi-|ri- tu-|
w: from~a- * * * bove,|May Thy|peace * come|bove. * *|Fill|our|hearts with|
 [CA]2 [CG]2 [CF]2 | (E2 z _A/_G/ A2) x | [DA]6 |!f! [CA]4 [CG]2 | [CA]2 [CG]2 [CF]2 | %30
w: i sanc- to,|et * * *||tu- i|sanc- to, *|
w: Thy great love.|Fill * * *||with Thy|great love. *|
 (E2 z _A/_G/ A2) x | [CA]6 |] %32
w: ||
w: ||
V:2
 x6 | x6 | x6 | x6 | x6 | x6 | x6 | x6 | x6 | x6 | x6 | x6 | x6 | x6 | x6 | x6 | x6 | x6 | x6 | %19
w: |||||||||||||||||||
w: |||||||||||||||||||
 x6 | c4 x2 | x2 B4 | x6 | x6 | x6 | x6 | _A3 D4 | x6 | x6 | x6 | _A3 D4 | x6 |] %32
w: |sanc-||||||spi- ri-||||||
w: |from~a-||||||our hearts||||||
V:3
 [F,A,]3 [F,A,] [F,A,]2 | [B,,B,]4 [F,A,]2 | A,2 [G,B,]2 [D,D]2 | [C,G,]6 | %4
 [F,A,]3 [F,A,] [F,A,]2 | [B,,B,]4 [F,A,]2 | A,2 [G,B,]2 [D,D]2 | [C,G,]6 | F,3 F, F,2 | %9
 [D,F,]4 [D,F,]2 | F,2 [B,,G,]2 [D,A,]2 | [C,C]6 | F,3 F, F,2 | [D,F,]4 [D,F,]2 | %14
 F,2 [B,,G,]2 [D,A,]2 | [C,C]6 | [C,E,]4 [C,F,]2 | [C,E,]2 [C,G,]2 [A,,F,]2 | (E,D,/C,/) [B,,D,]4 | %19
 [A,,A,]4 [A,,A,]2 | A,2 F,2 [D,F,]2 | [A,,E,]2 G,2 F,2 | E,D, E,4 | [D,F,]6 | F,4 [E,G,]2 | %25
 F,2 [C,E,]2 [A,,F,]2 | [A,,C]2 [E,,=B,]4 x | [A,,E,]6 | F,4 [E,G,]2 | F,2 [C,E,]2 [A,,F,]2 | %30
 [A,,C]2 [E,,=B,]4 x | [A,,A,]6 |] %32
V:4
 x6 | x6 | A,2 x4 | x6 | x6 | x6 | A,2 x4 | x6 | F,3 F, F,2 | x6 | F,2 x4 | x6 | F,3 F, F,2 | x6 | %14
 F,2 x4 | x6 | x6 | x6 | C,2 x4 | x6 | A,,4 x2 | x2 G,,4 | A,,6 | x6 | F,4 x2 | F,2 x4 | x7 | x6 | %28
 F,4 x2 | F,2 x4 | x7 | x6 |] %32

